packages/ffe-icons/icons/open/300/sm/trail_length_short.svg

<svg xmlns="http://www.w3.org/2000/svg" height="20" viewBox="0 -960 960 960" width="20"><path d="M576-298.001q-67.461 0-117.846-44-50.384-44-61.949-112H180q-11.05 0-18.524-7.418-7.475-7.418-7.475-18.384 0-10.966 7.475-18.581 7.474-7.615 18.524-7.615h216.366q4.327-27.616 17.881-55.366 13.553-27.75 37.755-48.636H276q-11.05 0-18.524-7.418-7.475-7.418-7.475-18.384 0-10.966 7.475-18.581 7.474-7.615 18.524-7.615h300q75.53 0 128.764 53.284 53.235 53.284 53.235 128.884t-53.235 128.715Q651.53-298.001 576-298.001Zm0-51.998q53.846 0 91.924-38.077 38.077-38.078 38.077-91.924 0-53.846-38.077-91.924-38.078-38.077-91.924-38.077-53.846 0-91.924 38.077-38.077 38.078-38.077 91.924 0 53.846 38.077 91.924 38.078 38.077 91.924 38.077Zm-274 51.998q-11.05 0-18.524-7.418-7.475-7.418-7.475-18.384 0-10.966 7.475-18.581 7.474-7.615 18.524-7.615h46q11.05 0 18.524 7.418 7.475 7.418 7.475 18.384 0 10.966-7.475 18.581-7.474 7.615-18.524 7.615h-46ZM576-480Z"/></svg>

<svg xmlns="http://www.w3.org/2000/svg" height="20" viewBox="0 -960 960 960" width="20"><path d="M576-298q-67.46 0-117.85-44-50.38-44-61.94-112H180q-11.05 0-18.52-7.42-7.48-7.42-7.48-18.38 0-10.97 7.48-18.58Q168.95-506 180-506h216.37q4.32-27.61 17.88-55.37Q427.8-589.12 452-610H276q-11.05 0-18.52-7.42-7.48-7.42-7.48-18.38 0-10.97 7.48-18.58Q264.95-662 276-662h300q75.53 0 128.76 53.28Q758-555.43 758-479.83t-53.24 128.71Q651.53-298 576-298Zm0-52q53.85 0 91.92-38.08Q706-426.15 706-480t-38.08-91.92Q629.85-610 576-610t-91.92 38.08Q446-533.85 446-480t38.08 91.92Q522.15-350 576-350Zm-274 52q-11.05 0-18.52-7.42-7.48-7.42-7.48-18.38 0-10.97 7.48-18.58Q290.95-350 302-350h46q11.05 0 18.52 7.42 7.48 7.42 7.48 18.38 0 10.97-7.48 18.58Q359.05-298 348-298h-46Zm274-182Z"/></svg>
